src/assets/icons/telegram.svg

<svg width="14" height="14" viewBox="0 0 14 14" fill="none" xmlns="http://www.w3.org/2000/svg">
<g id="telegram">
<g clip-path="url(#clip0_156_4484)">
<path id="Vector" d="M7 0C3.13337 0 0 3.13337 0 7C0 10.8666 3.13337 14 7 14C10.8666 14 14 10.8666 14 7C14 3.13337 10.8666 0 7 0ZM10.4379 4.79589L9.289 10.2095C9.20413 10.5936 8.97575 10.6864 8.65638 10.5061L6.90638 9.21637L6.062 10.0293C5.96925 10.122 5.88962 10.2016 5.70937 10.2016L5.83362 8.42099L9.07638 5.4915C9.21725 5.36725 9.04575 5.29638 8.85938 5.42063L4.851 7.94413L3.12375 7.40514C2.74837 7.28701 2.73962 7.02975 3.2025 6.8495L9.95138 4.24725C10.2655 4.13263 10.5394 4.32164 10.4379 4.79589Z" fill="black"/>
</g>
</g>
<defs>
<clipPath id="clip0_156_4484">
<rect width="14" height="14" fill="white"/>
</clipPath>
</defs>
</svg>

<svg xmlns="http://www.w3.org/2000/svg" fill="none" viewBox="0 0 14 14"><g clip-path="url(#a)"><path fill="#000" d="M7 0a7 7 0 0 0-7 7 7 7 0 0 0 7 7 7 7 0 0 0 7-7 7 7 0 0 0-7-7m3.438 4.796L9.289 10.21c-.085.384-.313.476-.633.296l-1.75-1.29-.844.813c-.093.093-.172.173-.353.173l.125-1.781 3.242-2.93c.141-.124-.03-.195-.217-.07L4.851 7.944l-1.727-.539c-.376-.118-.384-.375.079-.556L9.95 4.248c.314-.114.588.075.487.549"/></g><defs><clipPath id="a"><path fill="#fff" d="M0 0h14v14H0z"/></clipPath></defs></svg>
